Newaita-dark/apps/22/lightsoff.svg

<?xml version="1.0" encoding="UTF-8"?>
<svg xmlns="http://www.w3.org/2000/svg" xmlns:xlink="http://www.w3.org/1999/xlink" width="22pt" height="22pt" viewBox="0 0 22 22" version="1.1">
<defs>
<linearGradient id="linear0" gradientUnits="userSpaceOnUse" x1="254" y1="233.5" x2="254" y2="254.666672" gradientTransform="matrix(0.0429729,0,0,0.0429729,4.547962,9.239165)">
<stop offset="0" style="stop-color:rgb(0%,0%,0%);stop-opacity:0.27451;"/>
<stop offset="1" style="stop-color:rgb(0%,0%,0%);stop-opacity:0;"/>
</linearGradient>
<radialGradient id="radial0" gradientUnits="userSpaceOnUse" cx="450.908936" cy="189.579361" fx="450.908936" fy="189.579361" r="21.166656" gradientTransform="matrix(0.000000119742,-0.0537161,-0.0966889,-0.0000000698078,36.294621,43.721791)">
<stop offset="0" style="stop-color:rgb(0%,0%,0%);stop-opacity:0.313725;"/>
<stop offset="0.222222" style="stop-color:rgb(0%,0%,0%);stop-opacity:0.27451;"/>
<stop offset="1" style="stop-color:rgb(0%,0%,0%);stop-opacity:0;"/>
</radialGradient>
<radialGradient id="radial1" gradientUnits="userSpaceOnUse" cx="450.908936" cy="189.579361" fx="450.908936" fy="189.579361" r="21.166656" gradientTransform="matrix(-0.000000119742,0.0537161,0.0966889,0.0000000698078,-5.368485,-5.175142)">
<stop offset="0" style="stop-color:rgb(0%,0%,0%);stop-opacity:0.313725;"/>
<stop offset="0.222222" style="stop-color:rgb(0%,0%,0%);stop-opacity:0.27451;"/>
<stop offset="1" style="stop-color:rgb(0%,0%,0%);stop-opacity:0;"/>
</radialGradient>
<radialGradient id="radial2" gradientUnits="userSpaceOnUse" cx="450.908936" cy="189.579361" fx="450.908936" fy="189.579361" r="21.166656" gradientTransform="matrix(-0.000000119742,-0.0537161,0.0966889,-0.0000000698078,-5.368485,43.721791)">
<stop offset="0" style="stop-color:rgb(0%,0%,0%);stop-opacity:0.313725;"/>
<stop offset="0.222222" style="stop-color:rgb(0%,0%,0%);stop-opacity:0.27451;"/>
<stop offset="1" style="stop-color:rgb(0%,0%,0%);stop-opacity:0;"/>
</radialGradient>
<radialGradient id="radial3" gradientUnits="userSpaceOnUse" cx="450.908936" cy="189.579361" fx="450.908936" fy="189.579361" r="21.166656" gradientTransform="matrix(0.000000119742,0.0537161,-0.0966889,0.0000000698078,36.29462,-5.175142)">
<stop offset="0" style="stop-color:rgb(0%,0%,0%);stop-opacity:0.313725;"/>
<stop offset="0.222222" style="stop-color:rgb(0%,0%,0%);stop-opacity:0.27451;"/>
<stop offset="1" style="stop-color:rgb(0%,0%,0%);stop-opacity:0;"/>
</radialGradient>
<linearGradient id="linear1" gradientUnits="userSpaceOnUse" x1="148.166672" y1="21.833334" x2="148.166672" y2="-168.666656" gradientTransform="matrix(0.0429729,0,0,0.0429729,-0.454796,9.239163)">
<stop offset="0" style="stop-color:rgb(5.098039%,27.843137%,63.137255%);stop-opacity:1;"/>
<stop offset="1" style="stop-color:rgb(8.235294%,39.607843%,75.294118%);stop-opacity:1;"/>
</linearGradient>
<linearGradient id="linear2" gradientUnits="userSpaceOnUse" x1="148.166672" y1="21.833334" x2="148.166672" y2="-168.666656" gradientTransform="matrix(0.0429729,0,0,0.0429729,8.641125,18.335084)">
<stop offset="0" style="stop-color:rgb(5.098039%,27.843137%,63.137255%);stop-opacity:1;"/>
<stop offset="1" style="stop-color:rgb(8.235294%,39.607843%,75.294118%);stop-opacity:1;"/>
</linearGradient>
<linearGradient id="linear3" gradientUnits="userSpaceOnUse" x1="254" y1="233.5" x2="254" y2="254.666672" gradientTransform="matrix(0.0429729,0,0,0.0429729,-4.547962,9.239165)">
<stop offset="0" style="stop-color:rgb(0%,0%,0%);stop-opacity:0.27451;"/>
<stop offset="1" style="stop-color:rgb(0%,0%,0%);stop-opacity:0;"/>
</linearGradient>
<radialGradient id="radial4" gradientUnits="userSpaceOnUse" cx="450.908936" cy="189.579361" fx="450.908936" fy="189.579361" r="21.166656" gradientTransform="matrix(0.000000119742,-0.0537161,-0.0966889,-0.0000000698078,27.198697,43.721791)">
<stop offset="0" style="stop-color:rgb(0%,0%,0%);stop-opacity:0.313725;"/>
<stop offset="0.222222" style="stop-color:rgb(0%,0%,0%);stop-opacity:0.27451;"/>
<stop offset="1" style="stop-color:rgb(0%,0%,0%);stop-opacity:0;"/>
</radialGradient>
<radialGradient id="radial5" gradientUnits="userSpaceOnUse" cx="450.908936" cy="189.579361" fx="450.908936" fy="189.579361" r="21.166656" gradientTransform="matrix(-0.000000119742,0.0537161,0.0966889,0.0000000698078,-14.46441,-5.175142)">
<stop offset="0" style="stop-color:rgb(0%,0%,0%);stop-opacity:0.313725;"/>
<stop offset="0.222222" style="stop-color:rgb(0%,0%,0%);stop-opacity:0.27451;"/>
<stop offset="1" style="stop-color:rgb(0%,0%,0%);stop-opacity:0;"/>
</radialGradient>
<radialGradient id="radial6" gradientUnits="userSpaceOnUse" cx="450.908936" cy="189.579361" fx="450.908936" fy="189.579361" r="21.166656" gradientTransform="matrix(-0.000000119742,-0.0537161,0.0966889,-0.0000000698078,-14.46441,43.721791)">
<stop offset="0" style="stop-color:rgb(0%,0%,0%);stop-opacity:0.313725;"/>
<stop offset="0.222222" style="stop-color:rgb(0%,0%,0%);stop-opacity:0.27451;"/>
<stop offset="1" style="stop-color:rgb(0%,0%,0%);stop-opacity:0;"/>
</radialGradient>
<radialGradient id="radial7" gradientUnits="userSpaceOnUse" cx="450.908936" cy="189.579361" fx="450.908936" fy="189.579361" r="21.166656" gradientTransform="matrix(0.000000119742,0.0537161,-0.0966889,0.0000000698078,27.198696,-5.175142)">
<stop offset="0" style="stop-color:rgb(0%,0%,0%);stop-opacity:0.313725;"/>
<stop offset="0.222222" style="stop-color:rgb(0%,0%,0%);stop-opacity:0.27451;"/>
<stop offset="1" style="stop-color:rgb(0%,0%,0%);stop-opacity:0;"/>
</radialGradient>
<linearGradient id="linear4" gradientUnits="userSpaceOnUse" x1="148.166672" y1="21.833334" x2="148.166672" y2="-168.666656" gradientTransform="matrix(0.0429729,0,0,0.0429729,-0.454795,18.335084)">
<stop offset="0" style="stop-color:rgb(25.882353%,64.705882%,96.078431%);stop-opacity:1;"/>
<stop offset="1" style="stop-color:rgb(12.941176%,58.823529%,95.294118%);stop-opacity:1;"/>
</linearGradient>
<linearGradient id="linear5" gradientUnits="userSpaceOnUse" x1="148.166672" y1="21.833334" x2="148.166672" y2="-168.666656" gradientTransform="matrix(0.0429729,0,0,0.0429729,8.641124,9.239163)">
<stop offset="0" style="stop-color:rgb(25.882353%,64.705882%,96.078431%);stop-opacity:1;"/>
<stop offset="1" style="stop-color:rgb(12.941176%,58.823529%,95.294118%);stop-opacity:1;"/>
</linearGradient>
</defs>
<g id="surface1">
<path style=" stroke:none;fill-rule:nonzero;fill:url(#linear0);" d="M 12.734375 19.273438 L 18.191406 19.273438 L 18.191406 20.183594 L 12.734375 20.183594 Z M 12.734375 19.273438 "/>
<path style=" stroke:none;fill-rule:nonzero;fill:url(#radial0);" d="M 18.191406 19.273438 L 20.011719 19.273438 L 20.011719 18.363281 L 18.191406 18.363281 Z M 18.191406 19.273438 "/>
<path style=" stroke:none;fill-rule:nonzero;fill:url(#radial1);" d="M 12.734375 19.273438 L 10.914062 19.273438 L 10.914062 20.183594 L 12.734375 20.183594 Z M 12.734375 19.273438 "/>
<path style=" stroke:none;fill-rule:nonzero;fill:url(#radial2);" d="M 12.734375 19.273438 L 10.914062 19.273438 L 10.914062 18.363281 L 12.734375 18.363281 Z M 12.734375 19.273438 "/>
<path style=" stroke:none;fill-rule:nonzero;fill:url(#radial3);" d="M 18.191406 19.273438 L 20.011719 19.273438 L 20.011719 20.183594 L 18.191406 20.183594 Z M 18.191406 19.273438 "/>
<path style=" stroke:none;fill-rule:nonzero;fill:url(#linear1);" d="M 3.183594 1.992188 L 9.550781 1.992188 C 10.054688 1.992188 10.460938 2.398438 10.460938 2.902344 L 10.460938 9.269531 C 10.460938 9.769531 10.054688 10.175781 9.550781 10.175781 L 3.183594 10.175781 C 2.679688 10.175781 2.273438 9.769531 2.273438 9.269531 L 2.273438 2.902344 C 2.273438 2.398438 2.679688 1.992188 3.183594 1.992188 Z M 3.183594 1.992188 "/>
<path style=" stroke:none;fill-rule:nonzero;fill:url(#linear2);" d="M 12.28125 11.085938 L 18.648438 11.085938 C 19.148438 11.085938 19.554688 11.496094 19.554688 11.996094 L 19.554688 18.363281 C 19.554688 18.867188 19.148438 19.273438 18.648438 19.273438 L 12.28125 19.273438 C 11.777344 19.273438 11.371094 18.867188 11.371094 18.363281 L 11.371094 11.996094 C 11.371094 11.496094 11.777344 11.085938 12.28125 11.085938 Z M 12.28125 11.085938 "/>
<path style=" stroke:none;fill-rule:nonzero;fill:rgb(100%,100%,100%);fill-opacity:0.392157;" d="M 12.28125 11.085938 C 11.777344 11.085938 11.371094 11.492188 11.371094 11.996094 L 11.371094 12.222656 C 11.371094 11.71875 11.777344 11.3125 12.28125 11.3125 L 18.648438 11.3125 C 19.152344 11.3125 19.554688 11.71875 19.554688 12.222656 L 19.554688 11.996094 C 19.554688 11.492188 19.152344 11.085938 18.648438 11.085938 Z M 12.28125 11.085938 "/>
<path style=" stroke:none;fill-rule:nonzero;fill:rgb(0%,0%,0%);fill-opacity:0.235294;" d="M 12.28125 19.273438 C 11.777344 19.273438 11.371094 18.867188 11.371094 18.363281 L 11.371094 18.136719 C 11.371094 18.640625 11.777344 19.046875 12.28125 19.046875 L 18.648438 19.046875 C 19.152344 19.046875 19.554688 18.640625 19.554688 18.136719 L 19.554688 18.363281 C 19.554688 18.867188 19.152344 19.273438 18.648438 19.273438 Z M 12.28125 19.273438 "/>
<path style=" stroke:none;fill-rule:nonzero;fill:rgb(12.941177%,12.941177%,12.941177%);fill-opacity:1;" d="M 12.28125 11.023438 C 11.742188 11.023438 11.304688 11.457031 11.304688 11.996094 L 11.304688 18.363281 C 11.304688 18.902344 11.742188 19.335938 12.28125 19.335938 L 18.648438 19.335938 C 19.183594 19.335938 19.621094 18.902344 19.621094 18.363281 L 19.621094 11.996094 C 19.621094 11.457031 19.183594 11.023438 18.648438 11.023438 Z M 12.28125 11.152344 L 18.648438 11.152344 C 19.117188 11.152344 19.492188 11.527344 19.492188 11.996094 L 19.492188 18.363281 C 19.492188 18.832031 19.117188 19.207031 18.648438 19.207031 L 12.28125 19.207031 C 11.808594 19.207031 11.433594 18.832031 11.433594 18.363281 L 11.433594 11.996094 C 11.433594 11.527344 11.808594 11.152344 12.28125 11.152344 Z M 12.28125 11.152344 "/>
<path style=" stroke:none;fill-rule:nonzero;fill:rgb(100%,100%,100%);fill-opacity:0.392157;" d="M 3.183594 1.992188 C 2.679688 1.992188 2.273438 2.398438 2.273438 2.902344 L 2.273438 3.128906 C 2.273438 2.625 2.679688 2.21875 3.183594 2.21875 L 9.550781 2.21875 C 10.054688 2.21875 10.460938 2.625 10.460938 3.128906 L 10.460938 2.902344 C 10.460938 2.398438 10.054688 1.992188 9.550781 1.992188 Z M 3.183594 1.992188 "/>
<path style=" stroke:none;fill-rule:nonzero;fill:rgb(0%,0%,0%);fill-opacity:0.235294;" d="M 3.183594 10.175781 C 2.679688 10.175781 2.273438 9.773438 2.273438 9.269531 L 2.273438 9.039062 C 2.273438 9.542969 2.679688 9.949219 3.183594 9.949219 L 9.550781 9.949219 C 10.054688 9.949219 10.460938 9.542969 10.460938 9.039062 L 10.460938 9.269531 C 10.460938 9.773438 10.054688 10.175781 9.550781 10.175781 Z M 3.183594 10.175781 "/>
<path style=" stroke:none;fill-rule:nonzero;fill:rgb(12.941177%,12.941177%,12.941177%);fill-opacity:1;" d="M 3.183594 1.925781 C 2.644531 1.925781 2.210938 2.363281 2.210938 2.902344 L 2.210938 9.269531 C 2.210938 9.804688 2.644531 10.242188 3.183594 10.242188 L 9.550781 10.242188 C 10.089844 10.242188 10.523438 9.804688 10.523438 9.269531 L 10.523438 2.902344 C 10.523438 2.363281 10.089844 1.925781 9.550781 1.925781 Z M 3.183594 2.054688 L 9.550781 2.054688 C 10.019531 2.054688 10.394531 2.429688 10.394531 2.902344 L 10.394531 9.269531 C 10.394531 9.738281 10.019531 10.113281 9.550781 10.113281 L 3.183594 10.113281 C 2.714844 10.113281 2.339844 9.738281 2.339844 9.269531 L 2.339844 2.902344 C 2.339844 2.429688 2.714844 2.054688 3.183594 2.054688 Z M 3.183594 2.054688 "/>
<path style=" stroke:none;fill-rule:nonzero;fill:url(#linear3);" d="M 3.636719 19.273438 L 9.097656 19.273438 L 9.097656 20.183594 L 3.636719 20.183594 Z M 3.636719 19.273438 "/>
<path style=" stroke:none;fill-rule:nonzero;fill:url(#radial4);" d="M 9.097656 19.273438 L 10.914062 19.273438 L 10.914062 18.363281 L 9.097656 18.363281 Z M 9.097656 19.273438 "/>
<path style=" stroke:none;fill-rule:nonzero;fill:url(#radial5);" d="M 3.636719 19.273438 L 1.820312 19.273438 L 1.820312 20.183594 L 3.636719 20.183594 Z M 3.636719 19.273438 "/>
<path style=" stroke:none;fill-rule:nonzero;fill:url(#radial6);" d="M 3.636719 19.273438 L 1.820312 19.273438 L 1.820312 18.363281 L 3.636719 18.363281 Z M 3.636719 19.273438 "/>
<path style=" stroke:none;fill-rule:nonzero;fill:url(#radial7);" d="M 9.097656 19.273438 L 10.914062 19.273438 L 10.914062 20.183594 L 9.097656 20.183594 Z M 9.097656 19.273438 "/>
<path style=" stroke:none;fill-rule:nonzero;fill:url(#linear4);" d="M 3.183594 11.085938 L 9.550781 11.085938 C 10.054688 11.085938 10.460938 11.496094 10.460938 11.996094 L 10.460938 18.363281 C 10.460938 18.867188 10.054688 19.273438 9.550781 19.273438 L 3.183594 19.273438 C 2.679688 19.273438 2.273438 18.867188 2.273438 18.363281 L 2.273438 11.996094 C 2.273438 11.496094 2.679688 11.085938 3.183594 11.085938 Z M 3.183594 11.085938 "/>
<path style=" stroke:none;fill-rule:nonzero;fill:rgb(100%,100%,100%);fill-opacity:0.392157;" d="M 3.183594 11.085938 C 2.679688 11.085938 2.273438 11.492188 2.273438 11.996094 L 2.273438 12.222656 C 2.273438 11.71875 2.679688 11.3125 3.183594 11.3125 L 9.550781 11.3125 C 10.054688 11.3125 10.460938 11.71875 10.460938 12.222656 L 10.460938 11.996094 C 10.460938 11.492188 10.054688 11.085938 9.550781 11.085938 Z M 3.183594 11.085938 "/>
<path style=" stroke:none;fill-rule:nonzero;fill:rgb(0%,0%,0%);fill-opacity:0.235294;" d="M 3.183594 19.273438 C 2.679688 19.273438 2.273438 18.867188 2.273438 18.363281 L 2.273438 18.136719 C 2.273438 18.640625 2.679688 19.046875 3.183594 19.046875 L 9.550781 19.046875 C 10.054688 19.046875 10.460938 18.640625 10.460938 18.136719 L 10.460938 18.363281 C 10.460938 18.867188 10.054688 19.273438 9.550781 19.273438 Z M 3.183594 19.273438 "/>
<path style=" stroke:none;fill-rule:nonzero;fill:rgb(12.941177%,12.941177%,12.941177%);fill-opacity:1;" d="M 3.183594 11.023438 C 2.644531 11.023438 2.210938 11.457031 2.210938 11.996094 L 2.210938 18.363281 C 2.210938 18.902344 2.644531 19.335938 3.183594 19.335938 L 9.550781 19.335938 C 10.089844 19.335938 10.523438 18.902344 10.523438 18.363281 L 10.523438 11.996094 C 10.523438 11.457031 10.089844 11.023438 9.550781 11.023438 Z M 3.183594 11.152344 L 9.550781 11.152344 C 10.019531 11.152344 10.394531 11.527344 10.394531 11.996094 L 10.394531 18.363281 C 10.394531 18.832031 10.019531 19.207031 9.550781 19.207031 L 3.183594 19.207031 C 2.714844 19.207031 2.339844 18.832031 2.339844 18.363281 L 2.339844 11.996094 C 2.339844 11.527344 2.714844 11.152344 3.183594 11.152344 Z M 3.183594 11.152344 "/>
<path style=" stroke:none;fill-rule:nonzero;fill:url(#linear5);" d="M 12.28125 1.992188 L 18.648438 1.992188 C 19.148438 1.992188 19.554688 2.398438 19.554688 2.902344 L 19.554688 9.269531 C 19.554688 9.769531 19.148438 10.175781 18.648438 10.175781 L 12.28125 10.175781 C 11.777344 10.175781 11.371094 9.769531 11.371094 9.269531 L 11.371094 2.902344 C 11.371094 2.398438 11.777344 1.992188 12.28125 1.992188 Z M 12.28125 1.992188 "/>
<path style=" stroke:none;fill-rule:nonzero;fill:rgb(100%,100%,100%);fill-opacity:0.392157;" d="M 12.28125 1.992188 C 11.777344 1.992188 11.371094 2.398438 11.371094 2.902344 L 11.371094 3.128906 C 11.371094 2.625 11.777344 2.21875 12.28125 2.21875 L 18.648438 2.21875 C 19.152344 2.21875 19.554688 2.625 19.554688 3.128906 L 19.554688 2.902344 C 19.554688 2.398438 19.152344 1.992188 18.648438 1.992188 Z M 12.28125 1.992188 "/>
<path style=" stroke:none;fill-rule:nonzero;fill:rgb(0%,0%,0%);fill-opacity:0.235294;" d="M 12.28125 10.175781 C 11.777344 10.175781 11.371094 9.773438 11.371094 9.269531 L 11.371094 9.039062 C 11.371094 9.542969 11.777344 9.949219 12.28125 9.949219 L 18.648438 9.949219 C 19.152344 9.949219 19.554688 9.542969 19.554688 9.039062 L 19.554688 9.269531 C 19.554688 9.773438 19.152344 10.175781 18.648438 10.175781 Z M 12.28125 10.175781 "/>
<path style=" stroke:none;fill-rule:nonzero;fill:rgb(12.941177%,12.941177%,12.941177%);fill-opacity:1;" d="M 12.28125 1.925781 C 11.742188 1.925781 11.304688 2.363281 11.304688 2.902344 L 11.304688 9.269531 C 11.304688 9.804688 11.742188 10.242188 12.28125 10.242188 L 18.648438 10.242188 C 19.183594 10.242188 19.621094 9.804688 19.621094 9.269531 L 19.621094 2.902344 C 19.621094 2.363281 19.183594 1.925781 18.648438 1.925781 Z M 12.28125 2.054688 L 18.648438 2.054688 C 19.117188 2.054688 19.492188 2.429688 19.492188 2.902344 L 19.492188 9.269531 C 19.492188 9.738281 19.117188 10.113281 18.648438 10.113281 L 12.28125 10.113281 C 11.808594 10.113281 11.433594 9.738281 11.433594 9.269531 L 11.433594 2.902344 C 11.433594 2.429688 11.808594 2.054688 12.28125 2.054688 Z M 12.28125 2.054688 "/>
</g>
</svg>

<svg xmlns="http://www.w3.org/2000/svg" width="22pt" height="22pt" viewBox="0 0 22 22"><defs><linearGradient id="a" gradientUnits="userSpaceOnUse" x1="254" y1="233.5" x2="254" y2="254.667" gradientTransform="matrix(.04297 0 0 .04297 4.548 9.24)"><stop offset="0" stop-opacity=".275"/><stop offset="1" stop-opacity="0"/></linearGradient><radialGradient id="b" gradientUnits="userSpaceOnUse" cx="450.909" cy="189.579" fx="450.909" fy="189.579" r="21.167" gradientTransform="matrix(0 -.05372 -.09669 0 36.295 43.722)"><stop offset="0" stop-opacity=".314"/><stop offset=".222" stop-opacity=".275"/><stop offset="1" stop-opacity="0"/></radialGradient><radialGradient id="c" gradientUnits="userSpaceOnUse" cx="450.909" cy="189.579" fx="450.909" fy="189.579" r="21.167" gradientTransform="matrix(0 .05372 .09669 0 -5.368 -5.175)"><stop offset="0" stop-opacity=".314"/><stop offset=".222" stop-opacity=".275"/><stop offset="1" stop-opacity="0"/></radialGradient><radialGradient id="d" gradientUnits="userSpaceOnUse" cx="450.909" cy="189.579" fx="450.909" fy="189.579" r="21.167" gradientTransform="matrix(0 -.05372 .09669 0 -5.368 43.722)"><stop offset="0" stop-opacity=".314"/><stop offset=".222" stop-opacity=".275"/><stop offset="1" stop-opacity="0"/></radialGradient><radialGradient id="e" gradientUnits="userSpaceOnUse" cx="450.909" cy="189.579" fx="450.909" fy="189.579" r="21.167" gradientTransform="matrix(0 .05372 -.09669 0 36.295 -5.175)"><stop offset="0" stop-opacity=".314"/><stop offset=".222" stop-opacity=".275"/><stop offset="1" stop-opacity="0"/></radialGradient><linearGradient id="f" gradientUnits="userSpaceOnUse" x1="148.167" y1="21.833" x2="148.167" y2="-168.667" gradientTransform="matrix(.04297 0 0 .04297 -.455 9.24)"><stop offset="0" stop-color="#0d47a1"/><stop offset="1" stop-color="#1565c0"/></linearGradient><linearGradient id="g" gradientUnits="userSpaceOnUse" x1="148.167" y1="21.833" x2="148.167" y2="-168.667" gradientTransform="matrix(.04297 0 0 .04297 8.641 18.335)"><stop offset="0" stop-color="#0d47a1"/><stop offset="1" stop-color="#1565c0"/></linearGradient><linearGradient id="h" gradientUnits="userSpaceOnUse" x1="254" y1="233.5" x2="254" y2="254.667" gradientTransform="matrix(.04297 0 0 .04297 -4.548 9.24)"><stop offset="0" stop-opacity=".275"/><stop offset="1" stop-opacity="0"/></linearGradient><radialGradient id="i" gradientUnits="userSpaceOnUse" cx="450.909" cy="189.579" fx="450.909" fy="189.579" r="21.167" gradientTransform="matrix(0 -.05372 -.09669 0 27.199 43.722)"><stop offset="0" stop-opacity=".314"/><stop offset=".222" stop-opacity=".275"/><stop offset="1" stop-opacity="0"/></radialGradient><radialGradient id="j" gradientUnits="userSpaceOnUse" cx="450.909" cy="189.579" fx="450.909" fy="189.579" r="21.167" gradientTransform="matrix(0 .05372 .09669 0 -14.464 -5.175)"><stop offset="0" stop-opacity=".314"/><stop offset=".222" stop-opacity=".275"/><stop offset="1" stop-opacity="0"/></radialGradient><radialGradient id="k" gradientUnits="userSpaceOnUse" cx="450.909" cy="189.579" fx="450.909" fy="189.579" r="21.167" gradientTransform="matrix(0 -.05372 .09669 0 -14.464 43.722)"><stop offset="0" stop-opacity=".314"/><stop offset=".222" stop-opacity=".275"/><stop offset="1" stop-opacity="0"/></radialGradient><radialGradient id="l" gradientUnits="userSpaceOnUse" cx="450.909" cy="189.579" fx="450.909" fy="189.579" r="21.167" gradientTransform="matrix(0 .05372 -.09669 0 27.199 -5.175)"><stop offset="0" stop-opacity=".314"/><stop offset=".222" stop-opacity=".275"/><stop offset="1" stop-opacity="0"/></radialGradient><linearGradient id="m" gradientUnits="userSpaceOnUse" x1="148.167" y1="21.833" x2="148.167" y2="-168.667" gradientTransform="matrix(.04297 0 0 .04297 -.455 18.335)"><stop offset="0" stop-color="#42a5f5"/><stop offset="1" stop-color="#2196f3"/></linearGradient><linearGradient id="n" gradientUnits="userSpaceOnUse" x1="148.167" y1="21.833" x2="148.167" y2="-168.667" gradientTransform="matrix(.04297 0 0 .04297 8.641 9.24)"><stop offset="0" stop-color="#42a5f5"/><stop offset="1" stop-color="#2196f3"/></linearGradient></defs><path d="M12.734 19.273h5.457v.91h-5.457zm0 0" fill="url(#a)"/><path d="M18.191 19.273h1.82v-.91h-1.82zm0 0" fill="url(#b)"/><path d="M12.734 19.273h-1.82v.91h1.82zm0 0" fill="url(#c)"/><path d="M12.734 19.273h-1.82v-.91h1.82zm0 0" fill="url(#d)"/><path d="M18.191 19.273h1.82v.91h-1.82zm0 0" fill="url(#e)"/><path d="M3.184 1.992H9.55c.504 0 .91.406.91.91V9.27c0 .5-.406.906-.91.906H3.184a.908.908 0 0 1-.91-.906V2.902c0-.504.406-.91.91-.91zm0 0" fill="url(#f)"/><path d="M12.281 11.086h6.367c.5 0 .907.41.907.91v6.367c0 .504-.407.91-.907.91h-6.367a.909.909 0 0 1-.91-.91v-6.367c0-.5.406-.91.91-.91zm0 0" fill="url(#g)"/><path d="M12.281 11.086a.909.909 0 0 0-.91.91v.227c0-.504.406-.91.91-.91h6.367c.504 0 .907.406.907.91v-.227a.905.905 0 0 0-.907-.91zm0 0" fill="#fff" fill-opacity=".392"/><path d="M12.281 19.273a.909.909 0 0 1-.91-.91v-.226c0 .504.406.91.91.91h6.367a.905.905 0 0 0 .907-.91v.226c0 .504-.403.91-.907.91zm0 0" fill-opacity=".235"/><path d="M12.281 11.023a.974.974 0 0 0-.976.973v6.367c0 .54.437.973.976.973h6.367a.973.973 0 0 0 .973-.973v-6.367a.973.973 0 0 0-.973-.973zm0 .13h6.367a.84.84 0 0 1 .844.843v6.367a.84.84 0 0 1-.844.844h-6.367a.841.841 0 0 1-.847-.844v-6.367c0-.469.375-.844.847-.844zm0 0" fill="#212121"/><path d="M3.184 1.992a.909.909 0 0 0-.91.91v.227c0-.504.406-.91.91-.91H9.55c.504 0 .91.406.91.91v-.227a.909.909 0 0 0-.91-.91zm0 0" fill="#fff" fill-opacity=".392"/><path d="M3.184 10.176a.905.905 0 0 1-.91-.906v-.23c0 .503.406.91.91.91H9.55c.504 0 .91-.407.91-.91v.23a.905.905 0 0 1-.91.906zm0 0" fill-opacity=".235"/><path d="M3.184 1.926a.974.974 0 0 0-.973.976V9.27c0 .535.434.972.973.972H9.55c.539 0 .972-.437.972-.972V2.902a.974.974 0 0 0-.972-.976zm0 .129H9.55c.469 0 .844.375.844.847V9.27a.84.84 0 0 1-.844.843H3.184a.84.84 0 0 1-.844-.843V2.902c0-.472.375-.847.844-.847zm0 0" fill="#212121"/><path d="M3.637 19.273h5.46v.91h-5.46zm0 0" fill="url(#h)"/><path d="M9.098 19.273h1.816v-.91H9.098zm0 0" fill="url(#i)"/><path d="M3.637 19.273H1.82v.91h1.817zm0 0" fill="url(#j)"/><path d="M3.637 19.273H1.82v-.91h1.817zm0 0" fill="url(#k)"/><path d="M9.098 19.273h1.816v.91H9.098zm0 0" fill="url(#l)"/><path d="M3.184 11.086H9.55c.504 0 .91.41.91.91v6.367c0 .504-.406.91-.91.91H3.184a.909.909 0 0 1-.91-.91v-6.367c0-.5.406-.91.91-.91zm0 0" fill="url(#m)"/><path d="M3.184 11.086a.909.909 0 0 0-.91.91v.227c0-.504.406-.91.91-.91H9.55c.504 0 .91.406.91.91v-.227a.909.909 0 0 0-.91-.91zm0 0" fill="#fff" fill-opacity=".392"/><path d="M3.184 19.273a.909.909 0 0 1-.91-.91v-.226c0 .504.406.91.91.91H9.55c.504 0 .91-.406.91-.91v.226c0 .504-.406.91-.91.91zm0 0" fill-opacity=".235"/><path d="M3.184 11.023a.97.97 0 0 0-.973.973v6.367c0 .54.434.973.973.973H9.55a.97.97 0 0 0 .972-.973v-6.367a.97.97 0 0 0-.972-.973zm0 .13H9.55a.84.84 0 0 1 .844.843v6.367a.84.84 0 0 1-.844.844H3.184a.84.84 0 0 1-.844-.844v-6.367a.84.84 0 0 1 .844-.844zm0 0" fill="#212121"/><path d="M12.281 1.992h6.367c.5 0 .907.406.907.91V9.27c0 .5-.407.906-.907.906h-6.367a.908.908 0 0 1-.91-.906V2.902c0-.504.406-.91.91-.91zm0 0" fill="url(#n)"/><path d="M12.281 1.992a.909.909 0 0 0-.91.91v.227c0-.504.406-.91.91-.91h6.367c.504 0 .907.406.907.91v-.227a.905.905 0 0 0-.907-.91zm0 0" fill="#fff" fill-opacity=".392"/><path d="M12.281 10.176a.905.905 0 0 1-.91-.906v-.23c0 .503.406.91.91.91h6.367a.905.905 0 0 0 .907-.91v.23a.902.902 0 0 1-.907.906zm0 0" fill-opacity=".235"/><path d="M12.281 1.926a.977.977 0 0 0-.976.976V9.27c0 .535.437.972.976.972h6.367a.975.975 0 0 0 .973-.972V2.902a.976.976 0 0 0-.973-.976zm0 .129h6.367c.47 0 .844.375.844.847V9.27a.84.84 0 0 1-.844.843h-6.367a.841.841 0 0 1-.847-.843V2.902c0-.472.375-.847.847-.847zm0 0" fill="#212121"/></svg>
